X:1
T:Title
%%score 1 { ( 2 4 ) | ( 3 5 ) }
L:1/8
M:6/8
K:Eb
V:1 treble nm="Choir Aahs"
V:2 treble nm="Grand Piano"
V:4 treble 
V:3 bass 
V:5 bass 
V:1
 z3 z2[Q:1/4=100] B | B>cB edc | B G2- G2 G |[M:5/8] B>AG FG |[M:1/8] A |[M:5/8] G-G- G3 | %6
[M:1/8] B |[M:3/4] B>c Be dc | BG- G3 G |[M:5/8] B>AG FG |[M:1/8] F |[M:3/4] E4- EG | AA AA GF | %13
 GB- B3 E | FG Ac BA | G4- GB | cc cA Bc | BG- G3 G | FB cd dc |[M:5/8] B-B- B3 |[M:1/8] z | %21
[M:3/4] z6 | z6 |[M:5/8] z5 |[M:1/8] z |[M:3/4] z6 | z6 | z6 |[M:5/8] z5 |[M:1/8] z |[M:5/8] z5 |] %31
V:2
 z6 | z GG z GG | z GG z GG |[M:5/8][K:bass] z[K:treble] FF[K:bass] z[K:treble] F |[M:1/8] F | %5
[M:5/8] G-G- G3 |[M:1/8] z |[M:3/4] z G .G2 GG | z G .G2 GG | %9
[M:5/8][K:bass] z[K:treble] FF[K:bass] z F |[M:1/8] z |[M:3/4] E6 | %12
 z[K:treble] F .F2[K:bass][K:treble] GG | z G .G2 GG | z[K:treble] F .F2[K:bass][K:treble] FF | %15
 G6 | z[K:treble] A .A2[K:bass][K:treble] AA | z G .G2 GG | z F .F2 =AA | %19
[M:5/8] [DFB]-[DFB]- [DFB]3 |[M:1/8] [DB] |[M:3/4] B>c Be dc | BG- G3 G | %23
[M:5/8] [GB]>[FA][EG] [DF][EG] |[M:1/8] [FA] |[M:3/4] G4- GB | B>c Be dc | BG- G3 G | %28
[M:5/8] [GB]>[FA][EG] [DF][EG] |[M:1/8] [DF] |[M:5/8] E-E- E3 |] %31
V:3
 z6 | z [B,E][B,E] z [B,E][B,E] | z [B,E][B,E] z [B,E][B,E] |[M:5/8] z [B,D][B,D] z [B,D] | %4
[M:1/8] [B,D] |[M:5/8] [E,E]-[E,E]- [E,E]3 |[M:1/8] z |[M:3/4] z [B,E] .[B,E]2 [B,E][B,E] | %8
 z [B,E] .[B,E]2 [B,E][B,E] |[M:5/8] z [B,D][B,D] z [B,D] |[M:1/8] z |[M:3/4] [E,,E,]6 | %12
 z [B,D] .[B,D]2 [B,E][B,E] | z [B,E] .[B,E]2 [B,E][B,E] | z [B,D] .[B,D]2 [B,D][B,D] | [E,B,E]6 | %16
 z[K:treble] [CE] .[CE]2 [CE][CE] | z [B,E] .[B,E]2 [B,E][B,E] | z [B,D] .[B,D]2 [EF][EF] | %19
[M:5/8][K:bass] B,,-B,,- B,,3 |[M:1/8] [B,,A,] | %21
[M:3/4] [E,G,E]>[E,A,E] [E,G,E][E,CE] [E,B,E][E,A,E] | [E,G,E][E,B,E]- [E,B,E]3 [E,B,E] | %23
[M:5/8] [B,,B,]>[B,,B,][B,,B,] [B,,B,][B,,B,] |[M:1/8] [B,,B,] |[M:3/4] [E,B,E]4- [E,B,E][E,G,E] | %26
 [E,G,E]>[E,A,E] [E,G,E][E,CE] [E,B,E][E,A,E] | [E,G,E][E,B,E]- [E,B,E]3 [E,B,E] | %28
[M:5/8] [B,,B,]>[B,,B,][B,,B,] [B,,B,][B,,B,] |[M:1/8] [B,,A,] |[M:5/8] [E,G,]-[E,G,]- [E,G,]3 |] %31
V:4
 x6 | E,3 E,3 | E,3 E,3 |[M:5/8][K:bass] B,,3[K:treble][K:bass] B,,2[K:treble] |[M:1/8] x | %5
[M:5/8] x5 |[M:1/8] x |[M:3/4] E,3 E,3 | E,3 E,3 |[M:5/8][K:bass] B,,3[K:treble][K:bass] B,,2 | %10
[M:1/8] x |[M:3/4] x6 | B,,3[K:treble][K:bass] B,,3[K:treble] | E,3 E,3 | %14
 B,,3[K:treble][K:bass] B,,3[K:treble] | x6 | A,,3[K:treble][K:bass] A,,3[K:treble] | E,3 E,3 | %18
 F,3 F,3 |[M:5/8] x5 |[M:1/8] x |[M:3/4] x6 | x6 |[M:5/8] x5 |[M:1/8] x |[M:3/4] x6 | x6 | x6 | %28
[M:5/8] x5 |[M:1/8] x |[M:5/8] x5 |] %31
V:5
 x6 | E,,3 E,,3 | x6 |[M:5/8] x5 |[M:1/8] x |[M:5/8] x5 |[M:1/8] x |[M:3/4] E,,3 E,,3 | x6 | %9
[M:5/8] x5 |[M:1/8] x |[M:3/4] x6 | x6 | x6 | x6 | x6 | x[K:treble] x5 | x6 | x6 | %19
[M:5/8][K:bass] x5 |[M:1/8] x |[M:3/4] x6 | x6 |[M:5/8] x5 |[M:1/8] x |[M:3/4] x6 | x6 | x6 | %28
[M:5/8] x5 |[M:1/8] x |[M:5/8] x5 |] %31

